X: 22064
T: Knocklong, The
R: polka
M: 2/4
K: Dmajor
B|:AF F/F/{/G}F|BG [GB]/[GB]/[GB]|cA ce|d/c/d/e/ f/e/d/B/|
AF A/F/A|BG B/B/{/d}B|c/e/A c/e/A|dd{/e} d2:|
|:Af {/g} f>e|ed {/d} d/c/B|Bg g>f|ge {/f} e/f/e|Af {/g} f>e|
ed {/e} d/c/B|1 Bg g/e/B/c/|dd {/e} d2:|2 Bg g/e/c/e/|d{/e}d/c/ d2||

